X:5921
T:Gan ainm
R:Reel
S:Jacky Daly
H:
N:
D:Jacky Daly & Seamus Creagh
Z:Adrian Scahill
M:4/4
L:1/8
K:A
EAAc B2gf|ecdB cAFA|EAAc B2gf|ecdB cAA2:||\
aefa e2ce|dB (3cBA BFF2|aefa eac'a|babc' a3b|\
c'afa e2ce|dBcA BAFA|EAAc B2 gf|ecdB cAA2||


